images/50206924.svg

<?xml version="1.0" encoding="UTF-8"?>
<svg xmlns="http://www.w3.org/2000/svg" xmlns:xlink="http://www.w3.org/1999/xlink" width="300pt" height="300pt" viewBox="0 0 300 300" version="1.1">
<defs>
<g>
<symbol overflow="visible" id="glyph0-0">
<path style="stroke:none;" d="M 0.453125 1.59375 L 0.453125 -6.34375 L 4.953125 -6.34375 L 4.953125 1.59375 Z M 0.953125 1.09375 L 4.453125 1.09375 L 4.453125 -5.84375 L 0.953125 -5.84375 Z M 0.953125 1.09375 "/>
</symbol>
<symbol overflow="visible" id="glyph0-1">
<path style="stroke:none;" d="M 3.546875 -5.953125 C 2.898438 -5.953125 2.382812 -5.710938 2 -5.234375 C 1.625 -4.753906 1.4375 -4.101562 1.4375 -3.28125 C 1.4375 -2.445312 1.625 -1.789062 2 -1.3125 C 2.382812 -0.832031 2.898438 -0.59375 3.546875 -0.59375 C 4.191406 -0.59375 4.703125 -0.832031 5.078125 -1.3125 C 5.453125 -1.789062 5.640625 -2.445312 5.640625 -3.28125 C 5.640625 -4.101562 5.453125 -4.753906 5.078125 -5.234375 C 4.703125 -5.710938 4.191406 -5.953125 3.546875 -5.953125 Z M 3.546875 -6.6875 C 4.460938 -6.6875 5.195312 -6.375 5.75 -5.75 C 6.300781 -5.132812 6.578125 -4.3125 6.578125 -3.28125 C 6.578125 -2.238281 6.300781 -1.410156 5.75 -0.796875 C 5.195312 -0.179688 4.460938 0.125 3.546875 0.125 C 2.617188 0.125 1.878906 -0.179688 1.328125 -0.796875 C 0.773438 -1.410156 0.5 -2.238281 0.5 -3.28125 C 0.5 -4.3125 0.773438 -5.132812 1.328125 -5.75 C 1.878906 -6.375 2.617188 -6.6875 3.546875 -6.6875 Z M 3.546875 -6.6875 "/>
</symbol>
<symbol overflow="visible" id="glyph0-2">
<path style="stroke:none;" d="M 0.890625 -6.5625 L 2.078125 -6.5625 L 4.984375 -1.078125 L 4.984375 -6.5625 L 5.84375 -6.5625 L 5.84375 0 L 4.65625 0 L 1.75 -5.484375 L 1.75 0 L 0.890625 0 Z M 0.890625 -6.5625 "/>
</symbol>
<symbol overflow="visible" id="glyph0-3">
<path style="stroke:none;" d="M 0.890625 -6.5625 L 1.765625 -6.5625 L 1.765625 -3.875 L 5 -3.875 L 5 -6.5625 L 5.890625 -6.5625 L 5.890625 0 L 5 0 L 5 -3.125 L 1.765625 -3.125 L 1.765625 0 L 0.890625 0 Z M 0.890625 -6.5625 "/>
</symbol>
</g>
</defs>
<g id="surface23541">
<rect x="0" y="0" width="300" height="300" style="fill:rgb(100%,100%,100%);fill-opacity:1;stroke:none;"/>
<path style="fill:none;stroke-width:1.2;stroke-linecap:butt;stroke-linejoin:miter;stroke:rgb(100%,0%,0%);stroke-opacity:1;stroke-miterlimit:10;" d="M 52.078125 158.925781 L 56.835938 167.085938 "/>
<path style="fill:none;stroke-width:1.2;stroke-linecap:butt;stroke-linejoin:miter;stroke:rgb(0%,0%,0%);stroke-opacity:1;stroke-miterlimit:10;" d="M 56.835938 167.085938 L 61.59375 175.246094 "/>
<path style="fill:none;stroke-width:1.2;stroke-linecap:butt;stroke-linejoin:miter;stroke:rgb(100%,0%,0%);stroke-opacity:1;stroke-miterlimit:10;" d="M 55.917969 156.6875 L 60.675781 164.847656 "/>
<path style="fill:none;stroke-width:1.2;stroke-linecap:butt;stroke-linejoin:miter;stroke:rgb(0%,0%,0%);stroke-opacity:1;stroke-miterlimit:10;" d="M 60.675781 164.847656 L 65.433594 173.007812 "/>
<path style=" stroke:none;fill-rule:nonzero;fill:rgb(100%,100%,100%);fill-opacity:1;" d="M 45.996094 152.308594 L 53.996094 152.308594 L 53.996094 163.308594 L 45.996094 163.308594 Z M 45.996094 152.308594 "/>
<g style="fill:rgb(100%,0%,0%);fill-opacity:1;">
  <use xlink:href="#glyph0-1" x="45.996094" y="160.97168"/>
</g>
<path style="fill:none;stroke-width:1.2;stroke-linecap:butt;stroke-linejoin:miter;stroke:rgb(0%,0%,0%);stroke-opacity:1;stroke-miterlimit:10;" d="M 63.511719 174.125 L 72.957031 174.085938 "/>
<path style="fill:none;stroke-width:1.2;stroke-linecap:butt;stroke-linejoin:miter;stroke:rgb(0%,0%,100%);stroke-opacity:1;stroke-miterlimit:10;" d="M 72.957031 174.085938 L 82.402344 174.042969 "/>
<path style="fill:none;stroke-width:1.2;stroke-linecap:butt;stroke-linejoin:miter;stroke:rgb(0%,0%,0%);stroke-opacity:1;stroke-miterlimit:10;" d="M 63.511719 174.125 L 54.140625 190.527344 "/>
<path style="fill:none;stroke-width:1.2;stroke-linecap:butt;stroke-linejoin:miter;stroke:rgb(0%,0%,100%);stroke-opacity:1;stroke-miterlimit:10;" d="M 82.402344 174.042969 L 87.089844 165.84375 "/>
<path style="fill:none;stroke-width:1.2;stroke-linecap:butt;stroke-linejoin:miter;stroke:rgb(0%,0%,0%);stroke-opacity:1;stroke-miterlimit:10;" d="M 87.089844 165.84375 L 91.777344 157.644531 "/>
<path style=" stroke:none;fill-rule:nonzero;fill:rgb(100%,100%,100%);fill-opacity:1;" d="M 75.402344 168.542969 L 89.402344 168.542969 L 89.402344 179.542969 L 75.402344 179.542969 Z M 75.402344 168.542969 "/>
<g style="fill:rgb(0%,0%,100%);fill-opacity:1;">
  <use xlink:href="#glyph0-2" x="75.402344" y="177.206055"/>
  <use xlink:href="#glyph0-3" x="82.379883" y="177.206055"/>
</g>
<path style="fill:none;stroke-width:1.2;stroke-linecap:butt;stroke-linejoin:miter;stroke:rgb(0%,0%,0%);stroke-opacity:1;stroke-miterlimit:10;" d="M 91.777344 157.644531 L 82.257812 141.324219 "/>
<path style="fill:none;stroke-width:1.2;stroke-linecap:butt;stroke-linejoin:miter;stroke:rgb(0%,0%,0%);stroke-opacity:1;stroke-miterlimit:10;" d="M 94.664062 153.773438 L 87.050781 140.71875 "/>
<path style="fill:none;stroke-width:1.2;stroke-linecap:butt;stroke-linejoin:miter;stroke:rgb(0%,0%,0%);stroke-opacity:1;stroke-miterlimit:10;" d="M 110.664062 157.558594 L 91.777344 157.644531 "/>
<path style="fill:none;stroke-width:1.2;stroke-linecap:butt;stroke-linejoin:miter;stroke:rgb(0%,0%,0%);stroke-opacity:1;stroke-miterlimit:10;" d="M 82.257812 141.324219 L 91.632812 124.925781 "/>
<path style="fill:none;stroke-width:1.2;stroke-linecap:butt;stroke-linejoin:miter;stroke:rgb(0%,0%,0%);stroke-opacity:1;stroke-miterlimit:10;" d="M 91.632812 124.925781 L 110.523438 124.84375 "/>
<path style="fill:none;stroke-width:1.2;stroke-linecap:butt;stroke-linejoin:miter;stroke:rgb(0%,0%,0%);stroke-opacity:1;stroke-miterlimit:10;" d="M 93.542969 129.359375 L 108.652344 129.296875 "/>
<path style="fill:none;stroke-width:1.2;stroke-linecap:butt;stroke-linejoin:miter;stroke:rgb(0%,0%,0%);stroke-opacity:1;stroke-miterlimit:10;" d="M 110.523438 124.84375 L 120.039062 141.160156 "/>
<path style="fill:none;stroke-width:1.2;stroke-linecap:butt;stroke-linejoin:miter;stroke:rgb(0%,0%,0%);stroke-opacity:1;stroke-miterlimit:10;" d="M 110.523438 124.84375 L 119.894531 108.441406 "/>
<path style="fill:none;stroke-width:1.2;stroke-linecap:butt;stroke-linejoin:miter;stroke:rgb(0%,0%,0%);stroke-opacity:1;stroke-miterlimit:10;" d="M 120.039062 141.160156 L 110.664062 157.558594 "/>
<path style="fill:none;stroke-width:1.2;stroke-linecap:butt;stroke-linejoin:miter;stroke:rgb(0%,0%,0%);stroke-opacity:1;stroke-miterlimit:10;" d="M 115.242188 140.59375 L 107.742188 153.714844 "/>
<path style="fill:none;stroke-width:1.2;stroke-linecap:butt;stroke-linejoin:miter;stroke:rgb(0%,0%,0%);stroke-opacity:1;stroke-miterlimit:10;" d="M 119.894531 108.441406 L 138.785156 108.359375 "/>
<path style="fill:none;stroke-width:1.2;stroke-linecap:butt;stroke-linejoin:miter;stroke:rgb(0%,0%,0%);stroke-opacity:1;stroke-miterlimit:10;" d="M 138.785156 108.359375 L 148.300781 124.675781 "/>
<path style="fill:none;stroke-width:1.2;stroke-linecap:butt;stroke-linejoin:miter;stroke:rgb(0%,0%,0%);stroke-opacity:1;stroke-miterlimit:10;" d="M 143.578125 107.753906 L 151.191406 120.804688 "/>
<path style="fill:none;stroke-width:1.2;stroke-linecap:butt;stroke-linejoin:miter;stroke:rgb(0%,0%,0%);stroke-opacity:1;stroke-miterlimit:10;" d="M 148.160156 91.960938 L 138.785156 108.359375 "/>
<path style="fill:none;stroke-width:1.2;stroke-linecap:butt;stroke-linejoin:miter;stroke:rgb(0%,0%,0%);stroke-opacity:1;stroke-miterlimit:10;" d="M 148.300781 124.675781 L 167.191406 124.59375 "/>
<path style="fill:none;stroke-width:1.2;stroke-linecap:butt;stroke-linejoin:miter;stroke:rgb(0%,0%,0%);stroke-opacity:1;stroke-miterlimit:10;" d="M 167.191406 124.59375 L 176.566406 108.195312 "/>
<path style="fill:none;stroke-width:1.2;stroke-linecap:butt;stroke-linejoin:miter;stroke:rgb(0%,0%,0%);stroke-opacity:1;stroke-miterlimit:10;" d="M 164.269531 120.75 L 171.769531 107.628906 "/>
<path style="fill:none;stroke-width:1.2;stroke-linecap:butt;stroke-linejoin:miter;stroke:rgb(0%,0%,0%);stroke-opacity:1;stroke-miterlimit:10;" d="M 176.566406 108.195312 L 186.011719 108.152344 "/>
<path style="fill:none;stroke-width:1.2;stroke-linecap:butt;stroke-linejoin:miter;stroke:rgb(0%,0%,100%);stroke-opacity:1;stroke-miterlimit:10;" d="M 186.011719 108.152344 L 195.453125 108.113281 "/>
<path style="fill:none;stroke-width:1.2;stroke-linecap:butt;stroke-linejoin:miter;stroke:rgb(0%,0%,0%);stroke-opacity:1;stroke-miterlimit:10;" d="M 176.566406 108.195312 L 167.046875 91.878906 "/>
<path style="fill:none;stroke-width:1.2;stroke-linecap:butt;stroke-linejoin:miter;stroke:rgb(0%,0%,100%);stroke-opacity:1;stroke-miterlimit:10;" d="M 195.453125 108.113281 L 200.210938 116.269531 "/>
<path style="fill:none;stroke-width:1.2;stroke-linecap:butt;stroke-linejoin:miter;stroke:rgb(0%,0%,0%);stroke-opacity:1;stroke-miterlimit:10;" d="M 200.210938 116.269531 L 204.972656 124.429688 "/>
<path style=" stroke:none;fill-rule:nonzero;fill:rgb(100%,100%,100%);fill-opacity:1;" d="M 188.453125 102.613281 L 202.453125 102.613281 L 202.453125 113.613281 L 188.453125 113.613281 Z M 188.453125 102.613281 "/>
<g style="fill:rgb(0%,0%,100%);fill-opacity:1;">
  <use xlink:href="#glyph0-2" x="188.453125" y="111.276367"/>
  <use xlink:href="#glyph0-3" x="195.430664" y="111.276367"/>
</g>
<path style="fill:none;stroke-width:1.2;stroke-linecap:butt;stroke-linejoin:miter;stroke:rgb(0%,0%,0%);stroke-opacity:1;stroke-miterlimit:10;" d="M 203.042969 123.328125 L 198.355469 131.527344 "/>
<path style="fill:none;stroke-width:1.2;stroke-linecap:butt;stroke-linejoin:miter;stroke:rgb(100%,0%,0%);stroke-opacity:1;stroke-miterlimit:10;" d="M 198.355469 131.527344 L 193.667969 139.726562 "/>
<path style="fill:none;stroke-width:1.2;stroke-linecap:butt;stroke-linejoin:miter;stroke:rgb(0%,0%,0%);stroke-opacity:1;stroke-miterlimit:10;" d="M 206.898438 125.53125 L 202.214844 133.734375 "/>
<path style="fill:none;stroke-width:1.2;stroke-linecap:butt;stroke-linejoin:miter;stroke:rgb(100%,0%,0%);stroke-opacity:1;stroke-miterlimit:10;" d="M 202.214844 133.734375 L 197.527344 141.933594 "/>
<path style="fill:none;stroke-width:1.2;stroke-linecap:butt;stroke-linejoin:miter;stroke:rgb(0%,0%,0%);stroke-opacity:1;stroke-miterlimit:10;" d="M 204.972656 124.429688 L 214.414062 124.386719 "/>
<path style="fill:none;stroke-width:1.2;stroke-linecap:butt;stroke-linejoin:miter;stroke:rgb(0%,0%,100%);stroke-opacity:1;stroke-miterlimit:10;" d="M 214.414062 124.386719 L 223.859375 124.347656 "/>
<path style=" stroke:none;fill-rule:nonzero;fill:rgb(100%,100%,100%);fill-opacity:1;" d="M 187.597656 135.328125 L 195.597656 135.328125 L 195.597656 146.328125 L 187.597656 146.328125 Z M 187.597656 135.328125 "/>
<g style="fill:rgb(100%,0%,0%);fill-opacity:1;">
  <use xlink:href="#glyph0-1" x="187.597656" y="143.991211"/>
</g>
<path style="fill:none;stroke-width:1.2;stroke-linecap:butt;stroke-linejoin:miter;stroke:rgb(0%,0%,100%);stroke-opacity:1;stroke-miterlimit:10;" d="M 223.859375 124.347656 L 228.617188 132.507812 "/>
<path style="fill:none;stroke-width:1.2;stroke-linecap:butt;stroke-linejoin:miter;stroke:rgb(0%,0%,0%);stroke-opacity:1;stroke-miterlimit:10;" d="M 228.617188 132.507812 L 233.375 140.664062 "/>
<path style=" stroke:none;fill-rule:nonzero;fill:rgb(100%,100%,100%);fill-opacity:1;" d="M 216.859375 118.847656 L 230.859375 118.847656 L 230.859375 129.847656 L 216.859375 129.847656 Z M 216.859375 118.847656 "/>
<g style="fill:rgb(0%,0%,100%);fill-opacity:1;">
  <use xlink:href="#glyph0-2" x="216.859375" y="127.510742"/>
  <use xlink:href="#glyph0-3" x="223.836914" y="127.510742"/>
</g>
<path style="fill:none;stroke-width:1.2;stroke-linecap:butt;stroke-linejoin:miter;stroke:rgb(0%,0%,0%);stroke-opacity:1;stroke-miterlimit:10;" d="M 233.375 140.664062 L 242.773438 141.609375 "/>
<path style="fill:none;stroke-width:1.2;stroke-linecap:butt;stroke-linejoin:miter;stroke:rgb(0%,0%,100%);stroke-opacity:1;stroke-miterlimit:10;" d="M 242.773438 141.609375 L 252.171875 142.558594 "/>
<path style="fill:none;stroke-width:1.2;stroke-linecap:butt;stroke-linejoin:miter;stroke:rgb(0%,0%,0%);stroke-opacity:1;stroke-miterlimit:10;" d="M 225.769531 157.953125 L 233.375 140.664062 "/>
<path style="fill:none;stroke-width:1.2;stroke-linecap:butt;stroke-linejoin:miter;stroke:rgb(0%,0%,0%);stroke-opacity:1;stroke-miterlimit:10;" d="M 230.597656 158.015625 L 236.683594 144.183594 "/>
<path style="fill:none;stroke-width:1.2;stroke-linecap:butt;stroke-linejoin:miter;stroke:rgb(0%,0%,100%);stroke-opacity:1;stroke-miterlimit:10;" d="M 252.171875 142.558594 L 256.179688 161.015625 "/>
<path style="fill:none;stroke-width:1.2;stroke-linecap:butt;stroke-linejoin:miter;stroke:rgb(0%,0%,100%);stroke-opacity:1;stroke-miterlimit:10;" d="M 252.171875 142.558594 L 258.460938 135.511719 "/>
<path style="fill:none;stroke-width:1.2;stroke-linecap:butt;stroke-linejoin:miter;stroke:rgb(0%,0%,0%);stroke-opacity:1;stroke-miterlimit:10;" d="M 258.460938 135.511719 L 264.75 128.464844 "/>
<path style=" stroke:none;fill-rule:nonzero;fill:rgb(100%,100%,100%);fill-opacity:1;" d="M 249.171875 137.058594 L 256.171875 137.058594 L 256.171875 148.058594 L 249.171875 148.058594 Z M 249.171875 137.058594 "/>
<g style="fill:rgb(0%,0%,100%);fill-opacity:1;">
  <use xlink:href="#glyph0-2" x="249.171875" y="145.72168"/>
</g>
<path style="fill:none;stroke-width:1.2;stroke-linecap:butt;stroke-linejoin:miter;stroke:rgb(0%,0%,100%);stroke-opacity:1;stroke-miterlimit:10;" d="M 256.179688 161.015625 L 248.019531 165.773438 "/>
<path style="fill:none;stroke-width:1.2;stroke-linecap:butt;stroke-linejoin:miter;stroke:rgb(0%,0%,0%);stroke-opacity:1;stroke-miterlimit:10;" d="M 248.019531 165.773438 L 239.863281 170.535156 "/>
<path style="fill:none;stroke-width:1.2;stroke-linecap:butt;stroke-linejoin:miter;stroke:rgb(0%,0%,100%);stroke-opacity:1;stroke-miterlimit:10;" d="M 252.308594 158.128906 L 245.78125 161.9375 "/>
<path style="fill:none;stroke-width:1.2;stroke-linecap:butt;stroke-linejoin:miter;stroke:rgb(0%,0%,0%);stroke-opacity:1;stroke-miterlimit:10;" d="M 245.78125 161.9375 L 239.253906 165.742188 "/>
<path style=" stroke:none;fill-rule:nonzero;fill:rgb(100%,100%,100%);fill-opacity:1;" d="M 253.179688 155.515625 L 260.179688 155.515625 L 260.179688 166.515625 L 253.179688 166.515625 Z M 253.179688 155.515625 "/>
<g style="fill:rgb(0%,0%,100%);fill-opacity:1;">
  <use xlink:href="#glyph0-2" x="253.179688" y="164.178711"/>
</g>
<path style="fill:none;stroke-width:1.2;stroke-linecap:butt;stroke-linejoin:miter;stroke:rgb(0%,0%,0%);stroke-opacity:1;stroke-miterlimit:10;" d="M 239.863281 170.535156 L 225.769531 157.953125 "/>
<path style="fill:none;stroke-width:1.2;stroke-linecap:butt;stroke-linejoin:miter;stroke:rgb(0%,0%,0%);stroke-opacity:1;stroke-miterlimit:10;" d="M 239.863281 170.535156 L 237.96875 189.328125 "/>
<path style="fill:none;stroke-width:1.2;stroke-linecap:butt;stroke-linejoin:miter;stroke:rgb(0%,0%,0%);stroke-opacity:1;stroke-miterlimit:10;" d="M 237.96875 189.328125 L 219.175781 187.4375 "/>
<path style="fill:none;stroke-width:1.2;stroke-linecap:butt;stroke-linejoin:miter;stroke:rgb(0%,0%,0%);stroke-opacity:1;stroke-miterlimit:10;" d="M 237.96875 189.328125 L 256.765625 191.21875 "/>
<path style="fill:none;stroke-width:1.2;stroke-linecap:butt;stroke-linejoin:miter;stroke:rgb(0%,0%,0%);stroke-opacity:1;stroke-miterlimit:10;" d="M 237.96875 189.328125 L 236.078125 208.121094 "/>
<path style="fill:none;stroke-width:1.2;stroke-linecap:butt;stroke-linejoin:miter;stroke:rgb(0%,0%,0%);stroke-opacity:1;stroke-miterlimit:10;" d="M 167.046875 91.878906 L 148.160156 91.960938 "/>
<path style="fill:none;stroke-width:1.2;stroke-linecap:butt;stroke-linejoin:miter;stroke:rgb(0%,0%,0%);stroke-opacity:1;stroke-miterlimit:10;" d="M 165.179688 96.328125 L 150.066406 96.394531 "/>
<path style="fill:none;stroke-width:1.2;stroke-linecap:butt;stroke-linejoin:miter;stroke:rgb(0%,0%,0%);stroke-opacity:1;stroke-miterlimit:10;" d="M 54.140625 190.527344 L 35.25 190.609375 "/>
</g>
</svg>

<svg xmlns="http://www.w3.org/2000/svg" xmlns:xlink="http://www.w3.org/1999/xlink" width="300pt" height="300pt" viewBox="0 0 300 300"><defs><symbol overflow="visible"><path d="M.453 1.594v-7.938h4.5v7.938zm.5-.5h3.5v-6.938h-3.5zm0 0"/></symbol><symbol overflow="visible" id="a"><path d="M3.547-5.953c-.65 0-1.164.242-1.547.72-.375.48-.563 1.13-.563 1.952 0 .835.188 1.49.563 1.967.383.48.898.72 1.547.72.644 0 1.156-.24 1.53-.72.376-.476.564-1.132.564-1.968 0-.822-.187-1.474-.562-1.954-.375-.477-.887-.72-1.53-.72zm0-.734c.914 0 1.648.312 2.203.937.55.617.828 1.438.828 2.47 0 1.042-.277 1.87-.828 2.483-.555.617-1.29.922-2.203.922-.93 0-1.668-.305-2.22-.922C.774-1.41.5-2.237.5-3.28c0-1.033.273-1.853.828-2.47.55-.625 1.29-.938 2.22-.938zm0 0"/></symbol><symbol overflow="visible" id="b"><path d="M.89-6.563H2.08l2.906 5.485v-5.484h.86V0H4.656L1.75-5.484V0H.89zm0 0"/></symbol><symbol overflow="visible" id="c"><path d="M.89-6.563h.876v2.688H5v-2.688h.89V0H5v-3.125H1.766V0H.89zm0 0"/></symbol></defs><g><path fill="#fff" d="M0 0h300v300H0z"/><path d="M52.078 158.926l4.758 8.16" stroke-width="1.2" stroke="#f00" stroke-miterlimit="10" fill="none"/><path d="M56.836 167.086l4.758 8.16" stroke-width="1.2" stroke="#000" stroke-miterlimit="10" fill="none"/><path d="M55.918 156.688l4.758 8.16" stroke-width="1.2" stroke="#f00" stroke-miterlimit="10" fill="none"/><path d="M60.676 164.848l4.758 8.16" stroke-width="1.2" stroke="#000" stroke-miterlimit="10" fill="none"/><path d="M45.996 152.31h8v11h-8zm0 0" fill="#fff"/><use xlink:href="#a" x="45.996" y="160.972" fill="#f00"/><path d="M63.512 174.125l9.445-.04" stroke-width="1.2" stroke="#000" stroke-miterlimit="10" fill="none"/><path d="M72.957 174.086l9.445-.043" stroke-width="1.2" stroke="#00f" stroke-miterlimit="10" fill="none"/><path d="M63.512 174.125l-9.37 16.402" stroke-width="1.2" stroke="#000" stroke-miterlimit="10" fill="none"/><path d="M82.402 174.043l4.688-8.2" stroke-width="1.2" stroke="#00f" stroke-miterlimit="10" fill="none"/><path d="M87.09 165.844l4.687-8.2" stroke-width="1.2" stroke="#000" stroke-miterlimit="10" fill="none"/><path d="M75.402 168.543h14v11h-14zm0 0" fill="#fff"/><g fill="#00f"><use xlink:href="#b" x="75.402" y="177.206"/><use xlink:href="#c" x="82.38" y="177.206"/></g><path d="M91.777 157.645l-9.52-16.32M94.664 153.773L87.05 140.72M110.664 157.56l-18.887.085M82.258 141.324l9.375-16.398M91.633 124.926l18.89-.082M93.543 129.36l15.11-.063M110.523 124.844l9.516 16.316M110.523 124.844l9.372-16.403M120.04 141.16l-9.376 16.4M115.242 140.594l-7.5 13.12M119.895 108.44l18.89-.08M138.785 108.36l9.516 16.316M143.578 107.754l7.613 13.05M148.16 91.96l-9.375 16.4M148.3 124.676l18.89-.082M167.19 124.594l9.376-16.4M164.27 120.75l7.5-13.12M176.566 108.195l9.446-.043" stroke-width="1.2" stroke="#000" stroke-miterlimit="10" fill="none"/><path d="M186.012 108.152l9.44-.04" stroke-width="1.2" stroke="#00f" stroke-miterlimit="10" fill="none"/><path d="M176.566 108.195l-9.52-16.316" stroke-width="1.2" stroke="#000" stroke-miterlimit="10" fill="none"/><path d="M195.453 108.113l4.758 8.157" stroke-width="1.2" stroke="#00f" stroke-miterlimit="10" fill="none"/><path d="M200.21 116.27l4.763 8.16" stroke-width="1.2" stroke="#000" stroke-miterlimit="10" fill="none"/><path d="M188.453 102.613h14v11h-14zm0 0" fill="#fff"/><g fill="#00f"><use xlink:href="#b" x="188.453" y="111.276"/><use xlink:href="#c" x="195.431" y="111.276"/></g><path d="M203.043 123.328l-4.688 8.2" stroke-width="1.2" stroke="#000" stroke-miterlimit="10" fill="none"/><path d="M198.355 131.527l-4.687 8.2" stroke-width="1.2" stroke="#f00" stroke-miterlimit="10" fill="none"/><path d="M206.898 125.53l-4.683 8.204" stroke-width="1.2" stroke="#000" stroke-miterlimit="10" fill="none"/><path d="M202.215 133.734l-4.688 8.2" stroke-width="1.2" stroke="#f00" stroke-miterlimit="10" fill="none"/><path d="M204.973 124.43l9.44-.043" stroke-width="1.2" stroke="#000" stroke-miterlimit="10" fill="none"/><path d="M214.414 124.387l9.445-.04" stroke-width="1.2" stroke="#00f" stroke-miterlimit="10" fill="none"/><path d="M187.598 135.328h8v11h-8zm0 0" fill="#fff"/><use xlink:href="#a" x="187.598" y="143.991" fill="#f00"/><path d="M223.86 124.348l4.757 8.16" stroke-width="1.2" stroke="#00f" stroke-miterlimit="10" fill="none"/><path d="M228.617 132.508l4.758 8.156" stroke-width="1.2" stroke="#000" stroke-miterlimit="10" fill="none"/><path d="M216.86 118.848h14v11h-14zm0 0" fill="#fff"/><g fill="#00f"><use xlink:href="#b" x="216.859" y="127.511"/><use xlink:href="#c" x="223.837" y="127.511"/></g><path d="M233.375 140.664l9.398.945" stroke-width="1.2" stroke="#000" stroke-miterlimit="10" fill="none"/><path d="M242.773 141.61l9.4.95" stroke-width="1.2" stroke="#00f" stroke-miterlimit="10" fill="none"/><path d="M225.77 157.953l7.605-17.29M230.598 158.016l6.086-13.832" stroke-width="1.2" stroke="#000" stroke-miterlimit="10" fill="none"/><path d="M252.172 142.56l4.008 18.456M252.172 142.56l6.29-7.048" stroke-width="1.2" stroke="#00f" stroke-miterlimit="10" fill="none"/><path d="M258.46 135.512l6.29-7.047" stroke-width="1.2" stroke="#000" stroke-miterlimit="10" fill="none"/><path d="M249.172 137.06h7v11h-7zm0 0" fill="#fff"/><use xlink:href="#b" x="249.172" y="145.722" fill="#00f"/><path d="M256.18 161.016l-8.16 4.757" stroke-width="1.2" stroke="#00f" stroke-miterlimit="10" fill="none"/><path d="M248.02 165.773l-8.157 4.762" stroke-width="1.2" stroke="#000" stroke-miterlimit="10" fill="none"/><path d="M252.31 158.13l-6.53 3.808" stroke-width="1.2" stroke="#00f" stroke-miterlimit="10" fill="none"/><path d="M245.78 161.938l-6.526 3.804" stroke-width="1.2" stroke="#000" stroke-miterlimit="10" fill="none"/><path d="M253.18 155.516h7v11h-7zm0 0" fill="#fff"/><use xlink:href="#b" x="253.18" y="164.179" fill="#00f"/><path d="M239.863 170.535l-14.093-12.582M239.863 170.535l-1.894 18.793M237.97 189.328l-18.794-1.89M237.97 189.328l18.796 1.89M237.97 189.328l-1.892 18.793M167.047 91.88l-18.887.08M165.18 96.328l-15.114.067M54.14 190.527l-18.89.082" stroke-width="1.2" stroke="#000" stroke-miterlimit="10" fill="none"/></g></svg>
